X: 4280
T: MURPHY'S HORNPIPE
%R: hornpipe, reel
B: James Kerr "Merry Melodies" v.4 p.30 #280
Z: 2016 John Chambers <jc:trillian.mit.edu>
M: C|
L: 1/8
K: D
(3ABc) |\
   d2AF d2AF | d2fd (ec)Ag |\
[1 fgaf gfed | c2A2A2 :|\
[2 fgaf bgec | d2d2d2 |]
|: (fg) |\
   afde fgaf | gecd efge |\
[1 fgaf gfed | c2A2A2 :|\
[2 fgaf bgec | d2d2d2 |]

%%sep 1 1 500
%%sep 1 1 500

